images/icons/mastodon.svg

<svg fill="none" height="24" viewBox="0 0 24 24" width="24" xmlns="http://www.w3.org/2000/svg" xmlns:xlink="http://www.w3.org/1999/xlink"><linearGradient id="a" gradientUnits="userSpaceOnUse" x1="12.0015" x2="12.0015" y1="0" y2="24"><stop offset="0" stop-color="#6364ff"/><stop offset="1" stop-color="#563acc"/></linearGradient><clipPath id="b"><path d="m0 0h24v24h-24z"/></clipPath><g clip-path="url(#b)"><path d="m23.1722 5.31336c-.347-2.57868-2.5944-4.610874-5.2587-5.004659-.4495-.066539-2.1525-.308701-6.0976-.308701h-.0295c-3.94615 0-4.79274.242162-5.24224.308701-2.59005.382876-4.95536 2.208909-5.52923 4.818129-.276029 1.285-.305486 2.7096-.254209 4.01641.073098 1.87396.087281 3.74476.257479 5.61116.11766 1.2397.32292 2.4696.61423 3.6804.54551 2.2362 2.75371 4.0971 4.91717 4.8563 2.3163.7918 4.8073.9232 7.1941.3796.2626-.061.5219-.132.7779-.2127.5804-.1843 1.2601-.3905 1.7598-.7526.0069-.0051.0125-.0117.0164-.0192.004-.0076.0062-.0159.0065-.0245v-1.8086c-.0001-.0079-.002-.0158-.0056-.0229-.0035-.0071-.0086-.0134-.0149-.0183s-.0136-.0084-.0213-.0101c-.0078-.0017-.0159-.0017-.0236.0001-1.5292.3652-3.0963.5483-4.6685.5454-2.70568 0-3.43337-1.2839-3.64177-1.8184-.16749-.462-.27384-.9438-.31638-1.4333-.00045-.0083.00107-.0165.00441-.024.00331-.0075.00838-.0142.01476-.0193.00638-.0053.01389-.0089.02194-.0106.00805-.0018.01637-.0017.02436.0004 1.50371.3627 3.04518.5458 4.59208.5454.372 0 .7429 0 1.115-.0098 1.5557-.0436 3.1955-.1232 4.7262-.4221.0382-.0077.0764-.0142.1091-.024 2.4144-.4636 4.7121-1.9188 4.9456-5.6036.0087-.145.0305-1.5195.0305-1.67.0011-.5116.1647-3.62917-.024-5.54464z" fill="url(#a)"/><path d="m19.3471 8.21052v6.40638h-2.5387v-6.21767c0-1.30897-.5455-1.97656-1.6551-1.97656-1.2198 0-1.8307.78975-1.8307 2.34963v3.4034h-2.5235v-3.4034c0-1.55988-.612-2.34963-1.83179-2.34963-1.10303 0-1.65399.66759-1.65399 1.97656v6.21767h-2.53769v-6.40638c0-1.30898.33421-2.34888 1.00266-3.11973.6895-.76903 1.59396-1.16391 2.71659-1.16391 1.2994 0 2.28132.49959 2.93592 1.49769l.6317 1.06029.6328-1.06029c.6546-.9981 1.6365-1.49769 2.9337-1.49769 1.1215 0 2.026.39488 2.7177 1.16391.6677.77013 1.0012 1.81002 1.0004 3.11973z" fill="#fff"/></g></svg>

<svg width="24" height="24" viewBox="0 0 24 24" fill="none" xmlns="http://www.w3.org/2000/svg">
<g clip-path="url(#clip0_1432_8705)">
<path d="M23.1722 5.31336C22.8252 2.73468 20.5778 0.702486 17.9135 0.308701C17.464 0.242162 15.761 0 11.8159 0H11.7864C7.84025 0 6.99366 0.242162 6.54416 0.308701C3.95411 0.691577 1.5888 2.51761 1.01493 5.12683C0.738901 6.41183 0.709444 7.83643 0.760721 9.14324C0.833819 11.0172 0.848002 12.888 1.0182 14.7544C1.13586 15.9941 1.34112 17.224 1.63243 18.4348C2.17794 20.671 4.38614 22.5319 6.5496 23.2911C8.8659 24.0829 11.3569 24.2143 13.7437 23.6707C14.0063 23.6097 14.2656 23.5387 14.5216 23.458C15.102 23.2737 15.7817 23.0675 16.2814 22.7054C16.2883 22.7003 16.2939 22.6937 16.2978 22.6862C16.3018 22.6786 16.304 22.6703 16.3043 22.6617V20.8531C16.3042 20.8452 16.3023 20.8373 16.2987 20.8302C16.2952 20.8231 16.2901 20.8168 16.2838 20.8119C16.2775 20.807 16.2702 20.8035 16.2625 20.8018C16.2547 20.8001 16.2466 20.8001 16.2389 20.8019C14.7097 21.1671 13.1426 21.3502 11.5704 21.3473C8.86472 21.3473 8.13703 20.0634 7.92863 19.5289C7.76114 19.0669 7.65479 18.5851 7.61225 18.0956C7.6118 18.0873 7.61332 18.0791 7.61666 18.0716C7.61997 18.0641 7.62504 18.0574 7.63142 18.0523C7.6378 18.047 7.64531 18.0434 7.65336 18.0417C7.66141 18.0399 7.66973 18.04 7.67772 18.0421C9.18143 18.4048 10.7229 18.5879 12.2698 18.5875C12.6418 18.5875 13.0127 18.5875 13.3848 18.5777C14.9405 18.5341 16.5803 18.4545 18.111 18.1556C18.1492 18.1479 18.1874 18.1414 18.2201 18.1316C20.6345 17.668 22.9322 16.2128 23.1657 12.528C23.1744 12.383 23.1962 11.0085 23.1962 10.858C23.1973 10.3464 23.3609 7.22883 23.1722 5.31336Z" fill="url(#paint0_linear_1432_8705)"/>
<path d="M19.3471 8.21052V14.6169H16.8084V8.39923C16.8084 7.09026 16.2629 6.42267 15.1533 6.42267C13.9335 6.42267 13.3226 7.21242 13.3226 8.7723V12.1757H10.7991V8.7723C10.7991 7.21242 10.1871 6.42267 8.96731 6.42267C7.86428 6.42267 7.31332 7.09026 7.31332 8.39923V14.6169H4.77563V8.21052C4.77563 6.90154 5.10984 5.86164 5.77829 5.09079C6.46779 4.32176 7.37225 3.92688 8.49488 3.92688C9.79428 3.92688 10.7762 4.42647 11.4308 5.42457L12.0625 6.48486L12.6953 5.42457C13.3499 4.42647 14.3318 3.92688 15.629 3.92688C16.7505 3.92688 17.655 4.32176 18.3467 5.09079C19.0144 5.86092 19.3479 6.90081 19.3471 8.21052Z" fill="white"/>
</g>
<defs>
<linearGradient id="paint0_linear_1432_8705" x1="12.0015" y1="0" x2="12.0015" y2="24" gradientUnits="userSpaceOnUse">
<stop stop-color="#6364FF"/>
<stop offset="1" stop-color="#563ACC"/>
</linearGradient>
<clipPath id="clip0_1432_8705">
<rect width="24" height="24" fill="white"/>
</clipPath>
</defs>
</svg>
